X:1
T:Title
%%score 1 2 3 4
L:1/8
M:2/2
K:C
V:1 treble nm="Part_1"
V:2 treble-8 nm="Part_2"
V:3 treble-8 nm="Part_3"
V:4 bass nm="Part_4"
V:1
 G8- | G8 | G8- | G4 F4 | E8 | G8- | G4 G4 | F8- | F4 E4- | E2 D2 D4 | G8 | F8 | z8 | z4 D4 | D8 | %15
 G8- | G4 A4 | c6 BA | B8 | A4 B4- | B2 A2 G4- | G4 ^F4 | G8 | z4 G4 | F8- | F4 G4 | A6 G2 | %27
 F4 E2 D2 | E8 | z8 | z8 | z8 | A8 | B4 d4- | d2 cB A4 | G8 | c8 | B4 A4- | A2 G2 F4 | E4 A4- | %40
 A4 ^G4 | A8 | z4 G4 | G4 G4 | G8- | G4 F4 | F8- | F4 E4 | F4 E4- | E2 D2 D4- | D2 C2 B,4 | A,8- | %52
 A,8 | z4 F4 | F4 F4 | G8 | G6 A2 | B6 AG | A8 | z4 G4 | A4 B4 | c8- | c4 B2 A2 | B8 | G4 A4 | %65
 G2 A2 B2 c2 | d4 c4- | c4 B4 | c8 | z4 A4 | G4 G4 | A4 G2 A2 | F2 G4 F2 | G6 E2 | E8 | z4 E4 | %76
 D4 F4- | F2 ED E4 | D4 G4- | G4 ^F4 | G8 | z8 | z8 | E8- | E4 D4 | C8 | B,8 | B,4 B,4 | A,4 D4- | %89
 D4 C4 | D8 | G8 | G6 A2 | B4 c4 | B4 A4- | A4 ^G4 | A8 | z8 | z8 | G4 G4 | F8 | G8 | A4 G4- | %103
 G2 F2 E4- | E4 D4 | E4 F4 | G6 E2 | F2 G2 E2 DC | B,4 E4- | E4 D4 | E8 | E8- | E8 | E8 | E8 |] %115
V:2
 d8 | e4 e3 c | d3 c BA G2- | G2 E2 F4 | G6 c2- | c2 BA G4 | z4 G4 | A8 | d4 c4- | c2 e2 f2 d2 | %10
 edcB c4 | d8 | z4 d4 | f8 | g6 f2 | d4 e4 | d4 e4- | e4 f4 | g4 z4 | z4 d4 | e2 B2 c4 | d8 | B8 | %23
 z4 G4 | A8 | D4 G4 | F8 | D8 | A8 | G4 G4 | F4 A2 B2- | BA GF G4 | A8 | z4 B4- | B2 G2 A4 | %35
 B4 c4- | c2 BA G4 | g4 e4 | d8 | A4 f4 | e8 | c8 | z4 e4 | e4 e4 | e8- | e4 A4 | A8 | z4 A4 | %48
 F4 G4 | c4 A4 | B3 c d4 | d6 cB | A4 d4 | c4 A4 | z4 c4 | B2 d3 c BA | G4 z4 | d6 e2 | f4 f4 | %59
 e4 c4 | z4 g4 | e4 c4 | z4 c4 | d4 d4 | d8 | B4 z4 | d4 e2 f2 | g8 | e8 | z4 f4 | d4 d4 | %71
 f4 d2 f2- | f2 e2 f2 d2 | e8 | g8- | g8 | g4 c2 d2 | A3 B c4 | d4 e4- | e4 d4 | B4 e4- | %81
 e2 d2 c4- | c4 B4 | c8 | C4 G4 | E8 | z4 e4 | e3 f g4 | c4 d4 | e4 g4 | f6 d2 | d8 | e8 | g4 f4 | %94
 d2 g2 e4- | e8 | c4 d4- | d4 c4 | d2 f4 d2 | e2 c4 Bc | d8 | B6 c2 | d4 B4- | B2 A2 c4 | A8- | %105
 A4 F4 | E4 C2 E2 | F4 G4 | z4 c4 | A8- | A4 B2 c2- | c2 BA G3 A | B4 c4 | B4 B4- | B8 |] %115
V:3
 G8 | B4 c4 | B3 c d2 e2- | e2 c4 B2 | c8 | e6 dc | B4 c4 | d8 | A8 | G4 F4 | E3 F G4 | A8 | %12
 z4 D4 | D8 | G8 | z4 G4 | B4 c4- | c8 | d8 | c4 B4 | G8 | A8 | G8 | B4 c4 | d8- | d4 B4 | c4 A4 | %27
 d6 cB | c8 | e4 e4 | f4 d2 e2- | edcB c4 | d8- | d8 | d4 d4 | e8- | e8 | d4 c4 | f4 d4 | c4 d4 | %40
 B8 | A8 | z4 B4 | B4 B4 | B8- | B4 d4 | d8- | d4 c4 | A4 G4- | G4 F4 | D4 G4 | F8- | F8 | z4 A4 | %54
 A4 A4 | B8 | z4 B4 | B4 B4 | c8 | c4 e4 | f4 d4 | c4 e4- | e4 f4 | g8- | g4 f4 | e4 d4 | %66
 f4 e2 c2 | d8 | c8 | z4 c4 | B4 B4 | c4 B2 A2- | A2 G2 A4 | B8 | c8- | c8 | B4 A4 | d4 c4 | %78
 B4 G4 | A8 | G8 | z8 | z8 | c8- | c4 B4 | A8 | G8 | E8 | F8 | E8 | D8 | z8 | G8 | G4 A4 | B4 c4 | %95
 B8 | A8 | G4 G4 | F8 | G8 | A8 | G4 E4 | D4 E4 | G8 | F8 | E4 z4 | E4 G2 A2- | A2 B2 c3 B | %108
 G4 E4 | F8 | !fermata!E8- | E8 | E8 | E8 | E8 |] %115
V:4
 G,8 | E,4 C,4 | G,,4 B,,2 C,2- | C,2 E,2 D,4 | C,8- | C,8 | E,4 E,4 | D,8- | D,4 A,,4 | C,4 D,4 | %10
 E,8 | D,8- | D,8 | z8 | G,,4 G,,4- | G,,4 C,4 | B,,4 A,,4 | A,8 | G,6 D,2 | F,4 G,4 | E,8 | D,8 | %22
 E,8- | E,8 | D,8 | z8 | z8 | z8 | A,,8 | C,4 C,4 | D,4 F,2 G,2- | G,F,E,D, E,4 | D,8 | G,8- | %34
 G,4 F,4 | E,4 C,4- | C,2 D,2 E,2 F,2 | G,4 A,4 | D,8 | z4 D,4 | E,8 | F,8 | z4 E,4 | E,4 E,4 | %44
 E,8- | E,4 D,4 | D,8- | D,4 A,,4 | D,4 E,4 | C,4 D,4 | B,,4 G,,4 | D,8- | D,8 | A,,4 z2 D,2- | %54
 D,2 C,B,, A,,4 | G,,8- | G,,4 G,4 | G,4 G,4 | F,6 E,2 | C,8 | F,4 G,4 | A,8- | A,8 | G,8- | %64
 G,4 D,4 | E,3 F, G,4 | D,4 A,4 | G,8 | C,8 | z4 F,4 | G,4 G,4 | F,4 G,2 D,2- | D,2 G,2 F,4 | %73
 E,6 C,2 | C,8- | C,8 | G,4 F,2 D,2- | D,2 C,B,, A,,4 | B,,4 C,4- | C,4 D,4 | E,6 C,2 | E,4 F,4 | %82
 D,8 | C,8 | z4 G,,4 | A,,8 | E,8 | G,8 | F,4 D,4 | G,8 | A,8 | B,8 | E,8 | z4 F,4 | G,4 A,4 | %95
 E,8 | F,6 D,2 | E,4 E,4 | D,2 A,4 F,2 | E,8 | D,8 | E,4 G,4 | F,4 G,4 | E,4 C,4 | D,8 | A,,4 D,4 | %106
 C,2 E,4 C,2 | D,4 C,4 | E,4 C,4 | D,8 | A,,4 G,,2 A,,2- | A,,B,, C,3 D,E,F, | G,4 C,4 | E,8- | %114
 E,8 |] %115

